src/pos-icons/math-compass.svg

<svg height="24" viewBox="0 0 24 24" width="24" xmlns="http://www.w3.org/2000/svg"><path d="m20 19.88v2.12l-1.8-1.17-4.79-9c.66-.21 1.26-.55 1.78-1zm-5-12.88a3 3 0 0 1 -3 3c-.15 0-.29 0-.44 0l-5.76 10.83-1.8 1.17v-2.12l5.79-10.88c-1.1-1.23-1-3.13.24-4.24.54-.48 1.24-.76 1.97-.76v-2a1 1 0 0 1 1 1v1.18c1.2.42 2 1.55 2 2.82m-2 0a1 1 0 0 0 -1-1 1 1 0 0 0 -1 1 1 1 0 0 0 1 1 1 1 0 0 0 1-1z"/></svg>

<?xml version="1.0" encoding="UTF-8"?><!DOCTYPE svg PUBLIC "-//W3C//DTD SVG 1.1//EN" "http://www.w3.org/Graphics/SVG/1.1/DTD/svg11.dtd"><svg xmlns="http://www.w3.org/2000/svg" xmlns:xlink="http://www.w3.org/1999/xlink" version="1.1" id="mdi-math-compass" width="24" height="24" viewBox="0 0 24 24"><path d="M20,19.88V22L18.2,20.83L13.41,11.83C14.07,11.62 14.67,11.28 15.19,10.83L20,19.88M15,7A3,3 0 0,1 12,10C11.85,10 11.71,10 11.56,10L5.8,20.83L4,22V19.88L9.79,9C8.69,7.77 8.79,5.87 10.03,4.76C10.57,4.28 11.27,4 12,4V2A1,1 0 0,1 13,3V4.18C14.2,4.6 15,5.73 15,7M13,7A1,1 0 0,0 12,6A1,1 0 0,0 11,7A1,1 0 0,0 12,8A1,1 0 0,0 13,7Z" /></svg>
